rospo-icon-theme-classic-common/32x32/places/folder-black-dropbox.svg

<svg height="32" width="32" xmlns="http://www.w3.org/2000/svg"><rect height="16" opacity=".2" rx="1.25" width="25" x="3" y="12"/><path d="m3 21.75c0 .692.5575 1.25 1.25 1.25h22.5c.692 0 1.25-.558 1.25-1.25v-13.5c0-.6925-.558-1.25-1.25-1.25h-12.75v-.75c0-.6925-.557-1.25-1.25-1.25h-8.5c-.6925 0-1.25.5575-1.25 1.25" fill="#3f3f3f"/><rect height="16" opacity=".2" rx="1.25" width="25" x="3" y="10"/><rect fill="#dcdcdc" height="10" rx="1.25" width="21" x="5" y="9"/><rect fill="#4f4f4f" height="16" rx="1.25" width="25" x="3" y="11"/><path d="m4.25 5c-.6925 0-1.25.5575-1.25 1.25v1c0-.6925.5575-1.25 1.25-1.25h8.5c.693 0 1.25.5575 1.25 1.25v.75h12.75c.692 0 1.25.5575 1.25 1.25v-1c0-.6925-.558-1.25-1.25-1.25h-12.75v-.75c0-.6925-.557-1.25-1.25-1.25z" fill="#fff" opacity=".1"/><path d="m12.83 13.7-3.33 2 2.67 2-2.68 2 3.34 2 2.67-2-3.33-2 3.33-2 3.33 2-3.33 2 2.67 2 3.34-2-2.68-2 2.67-2-3.33-2-2.67 2zm2.67 6.6-2.67 2-.66-.4v.4l3.33 2 3.33-2v-.4l-.66.4z" fill="#c2c2c2"/></svg>

<svg xmlns="http://www.w3.org/2000/svg" width="32" height="32" version="1">
 <rect style="opacity:0.2" width="25" height="16" x="3" y="12" rx="1.25" ry="1.25"/>
 <path style="fill:#3f3f3f" d="M 3,21.75 C 3,22.442 3.5575,23 4.25,23 H 26.75 C 27.442,23 28,22.442 28,21.75 V 8.25 C 28,7.5575 27.442,7 26.75,7 H 14 V 6.25 C 14,5.5575 13.443,5 12.75,5 H 4.25 C 3.5575,5 3,5.5575 3,6.25"/>
 <rect style="opacity:0.2" width="25" height="16" x="3" y="10" rx="1.25" ry="1.25"/>
 <rect style="fill:#dcdcdc" width="21" height="10" x="5" y="9" rx="1.25" ry="1.25"/>
 <rect style="fill:#4f4f4f" width="25" height="16" x="3" y="11" rx="1.25" ry="1.25"/>
 <path style="opacity:0.1;fill:#ffffff" d="M 4.25 5 C 3.5575 5 3 5.5575 3 6.25 L 3 7.25 C 3 6.5575 3.5575 6 4.25 6 L 12.75 6 C 13.443 6 14 6.5575 14 7.25 L 14 8 L 26.75 8 C 27.442 8 28 8.5575 28 9.25 L 28 8.25 C 28 7.5575 27.442 7 26.75 7 L 14 7 L 14 6.25 C 14 5.5575 13.443 5 12.75 5 L 4.25 5 z"/>
 <path style="fill:#c2c2c2" d="M 12.83,13.7 9.5,15.7 12.17,17.7 9.49,19.7 12.83,21.7 15.5,19.7 12.17,17.7 15.5,15.7 18.83,17.7 15.5,19.7 18.17,21.7 21.51,19.7 18.83,17.7 21.5,15.7 18.17,13.7 15.5,15.7 Z M 15.5,20.3 12.83,22.3 12.17,21.9 V 22.3 L 15.5,24.3 18.83,22.3 V 21.9 L 18.17,22.3 Z"/>
</svg>
